app/assets/images/Contenido/Odin/Tecnología.svg

<svg fill="none" height="131" viewBox="0 0 118 131" width="118" xmlns="http://www.w3.org/2000/svg"><g fill="#000"><path d="m63.7408 44.9276c.1843.1648.4139.2457.6426.2457.2671 0 .5331-.1106.7244-.3273 1.7102-1.9366 2.6521-4.4275 2.6521-7.0134 0-5.8297-4.7168-10.5728-10.5145-10.5728s-10.5144 4.7429-10.5144 10.5728c0 2.5861.9417 5.0768 2.652 7.0134.3551.4025.9672.4387 1.3671.0816s.4361-.9725.0811-1.3746c-1.3951-1.58-2.1635-3.6114-2.1635-5.7204 0-4.756 3.8479-8.6253 8.5777-8.6253s8.5777 3.8693 8.5777 8.6253c0 2.1088-.7683 4.1404-2.1636 5.7204-.355.4021-.3187 1.0175.0813 1.3746z"/><path d="m62.7493 39.7138c.0388.0051.0774.0076.1156.0076.4814 0 .8978-.3942.9564-.9305.0294-.2697.0443-.5443.0443-.8165 0-3.7608-2.795-6.8203-6.2308-6.8203-3.4357 0-6.2307 3.0595-6.2307 6.8203 0 .2565.0132.515.0392.7684.0594.5793.5369.9954 1.0661.9311.5292-.0652.9101-.5877.8507-1.167-.018-.1753-.0271-.3546-.0271-.5325 0-2.5965 1.9298-4.709 4.3019-4.709 2.3722 0 4.3021 2.1125 4.3021 4.709 0 .1888-.0103.3791-.0307.566-.0634.5789.3141 1.1043.843 1.1734z"/><path d="m54.728 14.4844h15.7723c2.1242 0 3.8524 1.7704 3.8524 3.9463v17.9428c0 .5587.4419 1.0114.9873 1.0114s.9874-.4527.9874-1.0114v-17.9428c-.0002-3.2914-2.6141-5.969-5.8271-5.969h-15.7723c-.5452 0-.9873.4527-.9873 1.0114 0 .5586.4421 1.0113.9873 1.0113z"/><path d="m53.8741 17.9135h5.9636c.5041 0 .9125-.1743.9125-.3894s-.4084-.3894-.9125-.3894h-5.9636c-.5039 0-.9124.1743-.9124.3894s.4084.3894.9124.3894z"/><path d="m65.5284 17.5767c0-.6742-.5465-1.2207-1.2207-1.2207s-1.2208.5465-1.2208 1.2207c0 .6744.5466 1.2208 1.2208 1.2208s1.2207-.5466 1.2207-1.2208z"/><path d="m75.6433 72.1292h-.5856c.1005-1.2881.5405-2.5143 1.2878-3.5753 1.1159-1.5844 1.6702-3.5062 1.6702-5.4537v-7.2537c0-1.7134-1.1219-3.1657-2.6597-3.6424v-11.4045c0-.5436-.4127-1.0175-.9479-1.0338-.5538-.0168-1.008.4339-1.008.9922v11.3823c-.4171.0995-.8075.2697-1.1584.4975-.5314-1.5155-1.9728-2.6053-3.664-2.6053-.824 0-1.589.2586-2.2182.699-.5798-1.4192-1.973-2.4213-3.5951-2.4213-.6525 0-1.2759.1645-1.8253.4585v-7.0814c0-2.1462-1.7418-3.8922-3.883-3.8922-2.1411 0-3.8831 1.746-3.8831 3.8922v10.114h-.4317c-2.5153 0-4.5545 2.0695-4.5545 4.6224v2.849c0 .5435.4126 1.0174.9479 1.0337.5538.017 1.0081-.4337 1.0081-.9922v-2.8905c0-1.4565 1.1634-2.6374 2.5986-2.6374h.4318v6.5168c0 .5435.4125 1.0175.9478 1.0337.5538.017 1.0081-.4336 1.0081-.9921v-18.6571c0-1.0515.8645-1.9071 1.9271-1.9071s1.9271.8556 1.9271 1.9071v14.644c0 .5436.4127 1.0175.948 1.0338.5538.0168 1.008-.4339 1.008-.9922v-4.1766c-.0097-.9227.7993-1.909 1.8252-1.901 1.0626 0 1.9271.8556 1.9271 1.9084.0002 1.0021.0106 3.1423.0133 4.1725.0019.5471.4393.9893.9779.9893h.0034c.5395 0 .9765-.445.9747-.9926l-.0084-2.4854c.0204-1.0343.8754-1.8699 1.9253-1.8699 1.0626 0 1.9271.8556 1.9271 1.9071v2.4245c0 .5435.4127 1.0174.948 1.0337.5538.0168 1.008-.4338 1.008-.9922-.1729-1.0866.5437-2.352 1.7994-2.3673.9922 0 1.7996.8177 1.7996 1.8229v7.4125c0 1.4975-.4741 2.9497-1.3272 4.1715-.9726 1.3929-1.5312 3.0064-1.6342 4.6986h-16.3577c-.2428-1.8346-1.4787-3.6472-3.0858-4.6837-1.3186-.9771-2.3286-2.3074-2.9235-3.8496-.1951-.5056-.7392-.8033-1.2454-.6274-.5278.1834-.7955.7726-.597 1.2962.7279 1.9179 1.9771 3.5723 3.6124 4.7842 1.0271.6413 1.9765 1.7789 2.2514 3.0801h-.4943c-1.1874 0-2.2023.7544-2.6103 1.8147h-7.151c-2.1075 0-3.8159-1.7339-3.8159-3.8729v-51.627c0-2.1389 1.7084-3.8729 3.8159-3.8729h4.9951c.5355 0 1.0024-.4189 1.0185-.9621.0165-.5621-.4275-1.023-.9776-1.023h-5.0361c-3.1877 0-5.7719 2.6227-5.7719 5.858v51.627c0 3.2353 2.5842 5.8581 5.7719 5.8581h6.9577v1.5714c0 1.5714 1.2552 2.8454 2.8035 2.8454h11.328c.5356 0 1.0025-.4189 1.0185-.9622.0166-.562-.4274-1.023-.9775-1.023h-11.369c-.4681 0-.8475-.3851-.8475-.8602v-2.5258c0-.4751.3794-.8602.8475-.8602h21.3848c.4681 0 .8475.3851.8475.8602v2.5258c0 .4751-.3794.8602-.8475.8602h-5.4111c-.5355 0-1.0024.4189-1.0185.9622-.0165.562.4275 1.023.9776 1.023h5.452c1.5483 0 2.8035-1.274 2.8035-2.8454v-2.5258c.0001-1.5714-1.2551-2.8453-2.8034-2.8453z"/></g><circle cx="58.4138" cy="45.9521" r="44.7839" stroke="#000" stroke-width="2.33655"/><path d="m6.24952 125.924v-12.104h-4.75949v-2.257h12.18597v2.257h-4.75952v12.104zm18.35838-5.416c0 .205-.0205.512-.041.759h-8.5958c.3077 1.6 1.6412 2.626 3.5491 2.626 1.2309 0 2.1951-.39 2.9747-1.19l1.3745 1.579c-.9847 1.17-2.5234 1.785-4.4107 1.785-3.6722 0-6.052-2.359-6.052-5.621s2.4003-5.601 5.6622-5.601c3.2003 0 5.539 2.237 5.539 5.663zm-5.539-3.611c-1.6618 0-2.8721 1.067-3.1183 2.667h6.216c-.2051-1.58-1.4155-2.667-3.0977-2.667zm13.0285 9.17c-3.4671 0-5.9289-2.339-5.9289-5.621s2.4618-5.601 5.9289-5.601c2.1335 0 3.8363.883 4.6774 2.544l-1.9694 1.149c-.6565-1.046-1.6412-1.518-2.7285-1.518-1.8874 0-3.3235 1.313-3.3235 3.426 0 2.134 1.4361 3.426 3.3235 3.426 1.0873 0 2.072-.472 2.7285-1.518l1.9694 1.149c-.8411 1.641-2.5439 2.564-4.6774 2.564zm13.1102-11.222c2.6259 0 4.5749 1.498 4.5749 4.801v6.278h-2.5644v-5.95c0-1.949-.9642-2.892-2.6054-2.892-1.8259 0-3.0568 1.107-3.0568 3.302v5.54h-2.5643v-10.955h2.4412v1.415c.8412-1.005 2.1746-1.539 3.7748-1.539zm12.8517 11.222c-3.3644 0-5.8262-2.339-5.8262-5.621s2.4618-5.601 5.8262-5.601c3.4055 0 5.8468 2.319 5.8468 5.601s-2.4413 5.621-5.8468 5.621zm0-2.195c1.8669 0 3.2619-1.333 3.2619-3.426s-1.395-3.426-3.2619-3.426c-1.8463 0-3.2413 1.333-3.2413 3.426s1.395 3.426 3.2413 3.426zm8.299 2.052v-15.223h2.5644v15.223zm10.8538.143c-3.3645 0-5.8263-2.339-5.8263-5.621s2.4618-5.601 5.8263-5.601c3.4055 0 5.8468 2.319 5.8468 5.601s-2.4413 5.621-5.8468 5.621zm0-2.195c1.8668 0 3.2619-1.333 3.2619-3.426s-1.3951-3.426-3.2619-3.426c-1.8464 0-3.2414 1.333-3.2414 3.426s1.395 3.426 3.2414 3.426zm16.7306-8.903h2.4413v9.293c0 3.98-2.072 5.785-5.9083 5.785-2.0515 0-4.0825-.533-5.3339-1.559l1.1488-1.928c.9642.8 2.5234 1.312 4.0415 1.312 2.4208 0 3.4876-1.107 3.4876-3.323v-.574c-.9027.984-2.1952 1.456-3.6722 1.456-3.1388 0-5.5391-2.133-5.5391-5.313s2.4003-5.273 5.5391-5.273c1.5386 0 2.8926.493 3.7952 1.58zm-3.4055 8.288c1.9285 0 3.3235-1.272 3.3235-3.139 0-1.847-1.395-3.098-3.3235-3.098-1.9489 0-3.3439 1.251-3.3439 3.098 0 1.867 1.395 3.139 3.3439 3.139zm8.7874-9.786 2.7694-2.811h3.016l-3.57 2.811zm.4308 12.453v-10.955h2.5646v10.955zm10.1156-11.079c3.159 0 4.985 1.498 4.985 4.657v6.422h-2.421v-1.334c-.615.944-1.805 1.477-3.447 1.477-2.502 0-4.082-1.374-4.082-3.282 0-1.826 1.231-3.262 4.554-3.262h2.831v-.164c0-1.498-.902-2.38-2.728-2.38-1.231 0-2.503.41-3.324 1.087l-1.005-1.867c1.17-.902 2.872-1.354 4.637-1.354zm-.349 9.355c1.251 0 2.339-.574 2.769-1.702v-1.272h-2.646c-1.744 0-2.216.656-2.216 1.456 0 .923.78 1.518 2.093 1.518z" fill="#000"/></svg>

<svg width="118" height="131" viewBox="0 0 118 131" fill="none" xmlns="http://www.w3.org/2000/svg">
<path d="M63.7408 44.9276C63.9251 45.0924 64.1547 45.1733 64.3834 45.1733C64.6505 45.1733 64.9165 45.0627 65.1078 44.846C66.818 42.9094 67.7599 40.4185 67.7599 37.8326C67.7599 32.0029 63.0431 27.2598 57.2454 27.2598C51.4477 27.2598 46.731 32.0027 46.731 37.8326C46.731 40.4187 47.6727 42.9094 49.383 44.846C49.7381 45.2485 50.3502 45.2847 50.7501 44.9276C51.15 44.5705 51.1862 43.9551 50.8312 43.553C49.4361 41.973 48.6677 39.9416 48.6677 37.8326C48.6677 33.0766 52.5156 29.2073 57.2454 29.2073C61.9752 29.2073 65.8231 33.0766 65.8231 37.8326C65.8231 39.9414 65.0548 41.973 63.6595 43.553C63.3045 43.9551 63.3408 44.5705 63.7408 44.9276Z" fill="black"/>
<path d="M62.7493 39.7138C62.7881 39.7189 62.8267 39.7214 62.8649 39.7214C63.3463 39.7214 63.7627 39.3272 63.8213 38.7909C63.8507 38.5212 63.8656 38.2466 63.8656 37.9744C63.8656 34.2136 61.0706 31.1541 57.6348 31.1541C54.1991 31.1541 51.4041 34.2136 51.4041 37.9744C51.4041 38.2309 51.4173 38.4894 51.4433 38.7428C51.5027 39.3221 51.9802 39.7382 52.5094 39.6739C53.0386 39.6087 53.4195 39.0862 53.3601 38.5069C53.3421 38.3316 53.333 38.1523 53.333 37.9744C53.333 35.3779 55.2628 33.2654 57.6349 33.2654C60.0071 33.2654 61.937 35.3779 61.937 37.9744C61.937 38.1632 61.9267 38.3535 61.9063 38.5404C61.8429 39.1193 62.2204 39.6447 62.7493 39.7138Z" fill="black"/>
<path d="M54.728 14.4844H70.5003C72.6245 14.4844 74.3527 16.2548 74.3527 18.4307V36.3735C74.3527 36.9322 74.7946 37.3849 75.34 37.3849C75.8854 37.3849 76.3274 36.9322 76.3274 36.3735V18.4307C76.3272 15.1393 73.7133 12.4617 70.5003 12.4617H54.728C54.1828 12.4617 53.7407 12.9144 53.7407 13.4731C53.7407 14.0317 54.1828 14.4844 54.728 14.4844Z" fill="black"/>
<path d="M53.8741 17.9135H59.8377C60.3418 17.9135 60.7502 17.7392 60.7502 17.5241C60.7502 17.309 60.3418 17.1347 59.8377 17.1347H53.8741C53.3702 17.1347 52.9617 17.309 52.9617 17.5241C52.9617 17.7392 53.3701 17.9135 53.8741 17.9135Z" fill="black"/>
<path d="M65.5284 17.5767C65.5284 16.9025 64.9819 16.356 64.3077 16.356C63.6335 16.356 63.0869 16.9025 63.0869 17.5767C63.0869 18.2511 63.6335 18.7975 64.3077 18.7975C64.9819 18.7975 65.5284 18.2509 65.5284 17.5767Z" fill="black"/>
<path d="M75.6433 72.1292H75.0577C75.1582 70.8411 75.5982 69.6149 76.3455 68.5539C77.4614 66.9695 78.0157 65.0477 78.0157 63.1002V55.8465C78.0157 54.1331 76.8938 52.6808 75.356 52.2041V40.7996C75.356 40.256 74.9433 39.7821 74.4081 39.7658C73.8543 39.749 73.4001 40.1997 73.4001 40.758V52.1403C72.983 52.2398 72.5926 52.41 72.2417 52.6378C71.7103 51.1223 70.2689 50.0325 68.5777 50.0325C67.7537 50.0325 66.9887 50.2911 66.3595 50.7315C65.7797 49.3123 64.3865 48.3102 62.7644 48.3102C62.1119 48.3102 61.4885 48.4747 60.9391 48.7687V41.6873C60.9391 39.5411 59.1973 37.7951 57.0561 37.7951C54.915 37.7951 53.173 39.5411 53.173 41.6873V51.8013H52.7413C50.226 51.8013 48.1868 53.8708 48.1868 56.4237V59.2727C48.1868 59.8162 48.5994 60.2901 49.1347 60.3064C49.6885 60.3234 50.1428 59.8727 50.1428 59.3142V56.4237C50.1428 54.9672 51.3062 53.7863 52.7414 53.7863H53.1732V60.3031C53.1732 60.8466 53.5857 61.3206 54.121 61.3368C54.6748 61.3538 55.1291 60.9032 55.1291 60.3447V41.6876C55.1291 40.6361 55.9936 39.7805 57.0562 39.7805C58.1188 39.7805 58.9833 40.6361 58.9833 41.6876V56.3316C58.9833 56.8752 59.396 57.3491 59.9313 57.3654C60.4851 57.3822 60.9393 56.9315 60.9393 56.3732V52.1966C60.9296 51.2739 61.7386 50.2876 62.7645 50.2956C63.8271 50.2956 64.6916 51.1512 64.6916 52.204C64.6918 53.2061 64.7022 55.3463 64.7049 56.3765C64.7068 56.9236 65.1442 57.3658 65.6828 57.3658H65.6862C66.2257 57.3658 66.6627 56.9208 66.6609 56.3732L66.6525 53.8878C66.6729 52.8535 67.5279 52.0179 68.5778 52.0179C69.6404 52.0179 70.5049 52.8735 70.5049 53.925V56.3495C70.5049 56.893 70.9176 57.3669 71.4529 57.3832C72.0067 57.4 72.4609 56.9494 72.4609 56.391C72.288 55.3044 73.0046 54.039 74.2603 54.0237C75.2525 54.0237 76.0599 54.8414 76.0599 55.8466V63.2591C76.0599 64.7566 75.5858 66.2088 74.7327 67.4306C73.7601 68.8235 73.2015 70.437 73.0985 72.1292H56.7408C56.498 70.2946 55.2621 68.482 53.655 67.4455C52.3364 66.4684 51.3264 65.1381 50.7315 63.5959C50.5364 63.0903 49.9923 62.7926 49.4861 62.9685C48.9583 63.1519 48.6906 63.7411 48.8891 64.2647C49.617 66.1826 50.8662 67.837 52.5015 69.0489C53.5286 69.6902 54.478 70.8278 54.7529 72.129H54.2586C53.0712 72.129 52.0563 72.8834 51.6483 73.9437H44.4973C42.3898 73.9437 40.6814 72.2098 40.6814 70.0708V18.4438C40.6814 16.3049 42.3898 14.5709 44.4973 14.5709H49.4924C50.0279 14.5709 50.4948 14.152 50.5109 13.6088C50.5274 13.0467 50.0834 12.5858 49.5333 12.5858H44.4972C41.3095 12.5858 38.7253 15.2085 38.7253 18.4438V70.0708C38.7253 73.3061 41.3095 75.9289 44.4972 75.9289H51.4549V77.5003C51.4549 79.0717 52.7101 80.3457 54.2584 80.3457H65.5864C66.122 80.3457 66.5889 79.9268 66.6049 79.3835C66.6215 78.8215 66.1775 78.3605 65.6274 78.3605H54.2584C53.7903 78.3605 53.4109 77.9754 53.4109 77.5003V74.9745C53.4109 74.4994 53.7903 74.1143 54.2584 74.1143H75.6432C76.1113 74.1143 76.4907 74.4994 76.4907 74.9745V77.5003C76.4907 77.9754 76.1113 78.3605 75.6432 78.3605H70.2321C69.6966 78.3605 69.2297 78.7794 69.2136 79.3227C69.1971 79.8847 69.6411 80.3457 70.1912 80.3457H75.6432C77.1915 80.3457 78.4467 79.0717 78.4467 77.5003V74.9745C78.4468 73.4031 77.1916 72.1292 75.6433 72.1292Z" fill="black"/>
<circle cx="58.4138" cy="45.9521" r="44.7839" stroke="black" stroke-width="2.33655"/>
<path d="M6.24952 125.924V113.82H1.49003V111.563H13.676V113.82H8.91648V125.924H6.24952ZM24.6079 120.508C24.6079 120.713 24.5874 121.02 24.5669 121.267H15.9711C16.2788 122.867 17.6123 123.893 19.5202 123.893C20.7511 123.893 21.7153 123.503 22.4949 122.703L23.8694 124.282C22.8847 125.452 21.346 126.067 19.4587 126.067C15.7865 126.067 13.4067 123.708 13.4067 120.446C13.4067 117.184 15.807 114.845 19.0689 114.845C22.2692 114.845 24.6079 117.082 24.6079 120.508ZM19.0689 116.897C17.4071 116.897 16.1968 117.964 15.9506 119.564H22.1666C21.9615 117.984 20.7511 116.897 19.0689 116.897ZM32.0974 126.067C28.6303 126.067 26.1685 123.728 26.1685 120.446C26.1685 117.164 28.6303 114.845 32.0974 114.845C34.2309 114.845 35.9337 115.728 36.7748 117.389L34.8054 118.538C34.1489 117.492 33.1642 117.02 32.0769 117.02C30.1895 117.02 28.7534 118.333 28.7534 120.446C28.7534 122.58 30.1895 123.872 32.0769 123.872C33.1642 123.872 34.1489 123.4 34.8054 122.354L36.7748 123.503C35.9337 125.144 34.2309 126.067 32.0974 126.067ZM45.2076 114.845C47.8335 114.845 49.7825 116.343 49.7825 119.646V125.924H47.2181V119.974C47.2181 118.025 46.2539 117.082 44.6127 117.082C42.7868 117.082 41.5559 118.189 41.5559 120.384V125.924H38.9916V114.969H41.4328V116.384C42.274 115.379 43.6074 114.845 45.2076 114.845ZM58.0593 126.067C54.6949 126.067 52.2331 123.728 52.2331 120.446C52.2331 117.164 54.6949 114.845 58.0593 114.845C61.4648 114.845 63.9061 117.164 63.9061 120.446C63.9061 123.728 61.4648 126.067 58.0593 126.067ZM58.0593 123.872C59.9262 123.872 61.3212 122.539 61.3212 120.446C61.3212 118.353 59.9262 117.02 58.0593 117.02C56.213 117.02 54.818 118.353 54.818 120.446C54.818 122.539 56.213 123.872 58.0593 123.872ZM66.3583 125.924V110.701H68.9227V125.924H66.3583ZM77.2121 126.067C73.8476 126.067 71.3858 123.728 71.3858 120.446C71.3858 117.164 73.8476 114.845 77.2121 114.845C80.6176 114.845 83.0589 117.164 83.0589 120.446C83.0589 123.728 80.6176 126.067 77.2121 126.067ZM77.2121 123.872C79.0789 123.872 80.474 122.539 80.474 120.446C80.474 118.353 79.0789 117.02 77.2121 117.02C75.3657 117.02 73.9707 118.353 73.9707 120.446C73.9707 122.539 75.3657 123.872 77.2121 123.872ZM93.9427 114.969H96.384V124.262C96.384 128.242 94.312 130.047 90.4757 130.047C88.4242 130.047 86.3932 129.514 85.1418 128.488L86.2906 126.56C87.2548 127.36 88.814 127.872 90.3321 127.872C92.7529 127.872 93.8197 126.765 93.8197 124.549V123.975C92.917 124.959 91.6245 125.431 90.1475 125.431C87.0087 125.431 84.6084 123.298 84.6084 120.118C84.6084 116.938 87.0087 114.845 90.1475 114.845C91.6861 114.845 93.0401 115.338 93.9427 116.425V114.969ZM90.5372 123.257C92.4657 123.257 93.8607 121.985 93.8607 120.118C93.8607 118.271 92.4657 117.02 90.5372 117.02C88.5883 117.02 87.1933 118.271 87.1933 120.118C87.1933 121.985 88.5883 123.257 90.5372 123.257ZM99.3246 113.471L102.094 110.66H105.11L101.54 113.471H99.3246ZM99.7554 125.924V114.969H102.32V125.924H99.7554ZM109.871 114.845C113.03 114.845 114.856 116.343 114.856 119.502V125.924H112.435V124.59C111.82 125.534 110.63 126.067 108.988 126.067C106.486 126.067 104.906 124.693 104.906 122.785C104.906 120.959 106.137 119.523 109.46 119.523H112.291V119.359C112.291 117.861 111.389 116.979 109.563 116.979C108.332 116.979 107.06 117.389 106.239 118.066L105.234 116.199C106.404 115.297 108.106 114.845 109.871 114.845ZM109.522 124.2C110.773 124.2 111.861 123.626 112.291 122.498V121.226H109.645C107.901 121.226 107.429 121.882 107.429 122.682C107.429 123.605 108.209 124.2 109.522 124.2Z" fill="black"/>
</svg>
